T: Hurricane, The
M: 4/4
L: 1/8
K: Amaj
ac'e'c' aecA | GAEA GBBg | ac'e'c' aecA | defg aAAe | ac'e'c' aecA | GAEA GBBd | (3cBA (3BAG A.a.g.f. | ecdB cAA || D.C.fgaf ^efcf | efge ^deBe | fgaf ^efcf | gabg affc | fgaf ^efcf | efge ^deBe | aefd ceAa | ecdB cAA || D.C.
